assets/icons/functional/system&devices/desktop-tower.svg

<svg width="32" height="32" viewBox="0 0 32 32" fill="none" xmlns="http://www.w3.org/2000/svg"><g id="Icon-DesktopTower"><g clip-path="url(#clip0_9_1005)"><g id="size=md (32px)"><g id="DesktopTower"><path id="Vector" d="M14 23H4C3.46957 23 2.96086 22.7893 2.58579 22.4142C2.21071 22.0391 2 21.5304 2 21V12C2 11.4696 2.21071 10.9609 2.58579 10.5858C2.96086 10.2107 3.46957 10 4 10H14" stroke="#101828" stroke-width="2" stroke-linecap="round" stroke-linejoin="round"/><path id="Vector_2" d="M14 27H8" stroke="#101828" stroke-width="2" stroke-linecap="round" stroke-linejoin="round"/><path id="Vector_3" d="M26 9H22" stroke="#101828" stroke-width="2" stroke-linecap="round" stroke-linejoin="round"/><path id="Vector_4" d="M26 13H22" stroke="#101828" stroke-width="2" stroke-linecap="round" stroke-linejoin="round"/><path id="Vector_5" d="M29 5H19C18.4477 5 18 5.44772 18 6V26C18 26.5523 18.4477 27 19 27H29C29.5523 27 30 26.5523 30 26V6C30 5.44772 29.5523 5 29 5Z" stroke="#101828" stroke-width="2" stroke-linecap="round" stroke-linejoin="round"/><path id="Vector_6" d="M11 23V27" stroke="#101828" stroke-width="2" stroke-linecap="round" stroke-linejoin="round"/><path id="Vector_7" d="M24 24C24.8284 24 25.5 23.3284 25.5 22.5C25.5 21.6716 24.8284 21 24 21C23.1716 21 22.5 21.6716 22.5 22.5C22.5 23.3284 23.1716 24 24 24Z" fill="#101828"/></g></g></g></g><defs><clipPath id="clip0_9_1005"><rect width="32" height="32" rx="5" fill="white"/></clipPath></defs></svg>

<svg xmlns="http://www.w3.org/2000/svg" width="32" height="32" fill="none"><path stroke="#101828" stroke-linecap="round" stroke-linejoin="round" stroke-width="2" d="M14 23H4a2 2 0 0 1-2-2v-9a2 2 0 0 1 2-2h10m0 17H8M26 9h-4m4 4h-4m7-8H19a1 1 0 0 0-1 1v20a1 1 0 0 0 1 1h10a1 1 0 0 0 1-1V6a1 1 0 0 0-1-1ZM11 23v4"/><path fill="#101828" d="M24 24a1.5 1.5 0 1 0 0-3 1.5 1.5 0 0 0 0 3Z"/></svg>
